X:137 
T:Molly Maguire (reel) 
S:Grier MS
F:file ID: cre.4/137molly_m
B:CRE4.138 (MailÃÂÃÂÃÂÃÂ­ NÃÂÃÂÃÂÃÂ­g Uidhir)
L:1/8
Q:180
M:4/4
R:reel
K:G
G2Dc BGdB|cBAB cded|egdg BGG2|agba gedB|
G2 Dc BGdB|cBAB cded|egdg BG G2|agba g2fe ||
d2 Bd egfa|gdBG FAFD|EGFA GBdg|agab a2ag|
eg g2 dg g2|agbB cBAG|(3EFG DG B,GDG|AGBA G4|]

%%%

